src/icons/editor/glyph/DistributeVerticalIcon.svg

<svg width="24" height="24" viewBox="0 0 24 24" fill="none" xmlns="http://www.w3.org/2000/svg">
<path d="M3 4C3 3.44772 3.44772 3 4 3H20C20.5523 3 21 3.44772 21 4V6C21 6.55228 20.5523 7 20 7H4C3.44772 7 3 6.55228 3 6V4Z" fill="currentColor"/>
<path d="M7 11H17V13H7V11Z" fill="currentColor"/>
<path d="M3 18C3 17.4477 3.44772 17 4 17H20C20.5523 17 21 17.4477 21 18V20C21 20.5523 20.5523 21 20 21H4C3.44772 21 3 20.5523 3 20V18Z" fill="currentColor"/>
</svg>

<svg xmlns="http://www.w3.org/2000/svg" width="24" height="24" fill="currentColor" viewBox="0 0 24 24">
  <path d="M3 4a1 1 0 0 1 1-1h16a1 1 0 0 1 1 1v2a1 1 0 0 1-1 1H4a1 1 0 0 1-1-1V4Zm4 7h10v2H7v-2Zm-4 7a1 1 0 0 1 1-1h16a1 1 0 0 1 1 1v2a1 1 0 0 1-1 1H4a1 1 0 0 1-1-1v-2Z"/>
</svg>
